X:025
T:Cloone (reel) 
B:CRE3.132 (Chluain)
F:file ID: cre.3/025cloone
N:Version in C of "Humors of Toomagh"
R:reel
M:C
L:1/8
Q:180
K:C
dcAE G3A|GEcE G3d|dcAE G3A|GEcE EDD2|
dcAE G3A|GEcE G3B|c2ec egge|dcAG EDD2:|
c2ec gcec|g3g gede|c2ec gceg|gedc AG (3EFG|
c2ec gcec|g3g gedg|gedc dfed|cAGE EDD2:|

%%%

